X: 21264
T: Keep The Old Ark Rolling
R: reel
M: 4/4
K: Dmajor
B4|:A2- A>B A>GF>G|A<dd>c d2 e2|fza>f e>gf>e|d>fe>d B2 d2|
A2- A>B A>GF>G|A<dd>c d2 e2|f>ag>f e>gf>e|1 d2 z2 B4:|2 d<zd>c d>ef>g||
|:a>fd>f a3<f|g>fg>a b2 a>g|f>ag>f e>gf>e|d>fe>d B2 d2|
A2- A>B A>GF>G|A<dd>c d2 e2|f>ag>f e>gf>e|1 d<zd>c d>ef>g:|2 d2 z2 B4||

